X: 34
T: Banish Misfortune
B: begged borrowed and stolen
M:6/8
L:1/8
R: jig
Q: 3/8=100
K:Dmixolydian
V:1 
|de|:"D"fed cAG|A2d cAG|"Am"F2D DED|"C"FEF "C"GFG|
 "D"AGA cAG|AGA cde|"G"fed "Em"cAG|"A"Ad^c "D"d2e:|
 |:"D"f2d d^cd|f2g agf|"C"e2c cBc|e2f gfe|
 "D"f2g agf|"C"e2f gfe|"D"fed "G"cAG|"A"Ad^c "D"d2e:|
 |:"D"f2g "C"e2f|"D"d2e "Am"c2d|"Am"ABA "C"GAG|"D"F2F GED|
 "C"c3 cAG|AGA "Am"cde|"G"fed "Em"cAG|1 "A"Ad^c "D"d2e:|2 "A"Ad^c "D"d3||
% abcbook-tune_id 62828a3aed97a2234bae525d


% abcbook-boost 0
% abcbook-tablature 
% abcbook-transpose 
% abcbook-lastupdated 1652725431065
% abcbook-soundfonts 
% abcbook-repeats 3
% abc-sessionorg_id 9
% abc-sessionorg_setting 0
% abc-sessionorg_setting_id 28408
% abc-boost 0

